X: 1
T: Prelude
M: 2/4
L: 1/8
R: polka
K: Bmin
B>c de|fb fe|dB cA|BA FA|
B>c de|fb fe|dB BA|1B2B2:|2Bc de||
fg/f/ ed|ce AF|G>G GA|B/c/d cA|
fg/f/ ed|ce AF|GA B/c/d|cA B2:|
